X: 70
T: Beata gens
C: Gaspar van Weerbeke
%%abc-version 2.0
%%abcx-abcm2ps-target-version 5.9.1 (29 Sep 2008)
%%abc-creator hum2abc beta
%%abcx-conversion-date 2022/03/06 13:05:57
%%abc-copyright Copyright 1994, Lindmayr-Brandl, Andrea
%%abc-edited-by Mair-Gruber, Roland
%%humdrum-veritas 236599313
%%humdrum-veritas-data 3466460244
%%linebreak <none>
%%barnumbers 0
L: 1/4
M: 2/2
N: Derived from Gas0303c-In_honorem_sancti_spiritus-Beata_gens.krn
%%staves [1 2 3 4]
V: 1 clef=treble
V: 2 clef=treble-8
V: 3 clef=treble-8
V: 4 clef=bass
K: C
[V:1] z4 | 
[V:2] z4 | 
[V:3] G4 | 
[V:4] G,3F,/E,/ | 
[V:1] z4 | 
[V:2] z4 | 
[V:3] A2B2 | 
[V:4] F,2G,2 | 
[V:1] G4 | 
[V:2] z4 | 
[V:3] G2c2- | 
[V:4] E,2C,2 | 
[V:1] A2B2 | 
[V:2] z4 | 
[V:3] c2B2 | 
[V:4] F,2G,2 | 
[V:1] G2c2- | 
[V:2] z4 | 
[V:3] c4 | 
[V:4] E,2A,2 | 
[V:1] c2B2 | 
[V:2] g4 | 
[V:3] d4 | 
[V:4] G,4 | 
[V:1] c4 | 
[V:2] e3d/c/ | 
[V:3] c4 | 
[V:4] C,4 | 
[V:1] d4 | 
[V:2] Bcd2 | 
[V:3] z2B2 | 
[V:4] G,,4 | 
[V:1] c4 | 
[V:2] e2f2 | 
[V:3] A2F2 | 
[V:4] z4 | 
[V:1] z2B2 | 
[V:2] d3e | 
[V:3] G4 | 
[V:4] G,,4 | 
[V:1] A3F | 
[V:2] f2c2 | 
[V:3] F2A2 | 
[V:4] D,2F,2 | 
[V:1] G4 | 
[V:2] z2e2 | 
[V:3] B2c2 | 
[V:4] E,4 | 
[V:1] F>GA2 | 
[V:2] A2F3/G/ | 
[V:3] d3c/B/ | 
[V:4] D,3E, | 
[V:1] zGAF- | 
[V:2] AGFA | 
[V:3] ABAd- | 
[V:4] F,E,F,D, | 
[V:1] FE/D/E2 | 
[V:2] F/G/A/B/A2 | 
[V:3] d^c/B/^c2 | 
[V:4] zD,A,,2 | 
[V:1] D2z2 | 
[V:2] z4 | 
[V:3] d4 | 
[V:4] _B,,2D,2- | 
[V:1] z4 | 
[V:2] z4 | 
[V:3] z2c2 | 
[V:4] D,E,F,2 | 
[V:1] z4 | 
[V:2] z4 | 
[V:3] B2cd- | 
[V:4] G,2A,_B,- | 
[V:1] z4 | 
[V:2] z4 | 
[V:3] dc/_B/cA- | 
[V:4] B,A,/G,/A,2 | 
[V:1] z4 | 
[V:2] z4 | 
[V:3] A_B2A/G/ | 
[V:4] F,G,2F,/E,/ | 
[V:1] z4 | 
[V:2] z4 | 
[V:3] AF2G- | 
[V:4] F,2D,E,- | 
[V:1] z4 | 
[V:2] z4 | 
[V:3] GF/E/FD/E/ | 
[V:4] E,D,/C,/D,2 | 
[V:1] z4 | 
[V:2] z4 | 
[V:3] F/G/A2_B- | 
[V:4] _B,,C,2B,,/A,,/ | 
[V:1] z4 | 
[V:2] z2c2 | 
[V:3] BG2^F | 
[V:4] G,,_B,,A,,2 | 
[V:1] z4 | 
[V:2] _B_Bd3/c/ | 
[V:3] G4 | 
[V:4] G,,4 | 
[V:1] c2_BB | 
[V:2] A2G2 | 
[V:3] z4 | 
[V:4] z4 | 
[V:1] d>cA2 | 
[V:2] zg2f | 
[V:3] z4 | 
[V:4] z4 | 
[V:1] G_B2A/G/ | 
[V:2] eg2f/e/ | 
[V:3] z4 | 
[V:4] z4 | 
[V:1] AF2G- | 
[V:2] f2de- | 
[V:3] z4 | 
[V:4] z4 | 
[V:1] GF/E/FD/E/ | 
[V:2] ed/c/d2 | 
[V:3] z4 | 
[V:4] z4 | 
[V:1] F/G/A2_B- | 
[V:2] _Bc2_B/A/ | 
[V:3] z4 | 
[V:4] z4 | 
[V:1] BG2^F | 
[V:2] G_BA2 | 
[V:3] z4 | 
[V:4] z4 | 
[V:1] G2zG | 
[V:2] G2d2 | 
[V:3] z2G2 | 
[V:4] z2G,,2 | 
[V:1] AA2G | 
[V:2] dd2d | 
[V:3] FF2G | 
[V:4] D,D,2G,, | 
[V:1] A2G2 | 
[V:2] fdB^c | 
[V:3] F2G2 | 
[V:4] D,2E,2 | 
[V:1] F2GA- | 
[V:2] d2z2 | 
[V:3] A2_Bc- | 
[V:4] D,2G,F,- | 
[V:1] A/_B/c2B/A/ | 
[V:2] f2e2 | 
[V:3] c/_B/A/G/c2 | 
[V:4] F,2C,2 | 
[V:1] _BA2G | 
[V:2] dfd2 | 
[V:3] d/c/_B/A/_B2 | 
[V:4] G,F,G,2 | 
[V:1] A2z2 | 
[V:2] d2dB- | 
[V:3] A2z2 | 
[V:4] D,2z2 | 
[V:1] d2dB- | 
[V:2] BGGg- | 
[V:3] z4 | 
[V:4] z4 | 
[V:1] BGG2 | 
[V:2] g/f/e/d<ed/ | 
[V:3] z4 | 
[V:4] z4 | 
[V:1] zc>BA/G/ | 
[V:2] c/B/A2e | 
[V:3] z4 | 
[V:4] z4 | 
[V:1] A>G F/E/D/C/ | 
[V:2] f>e d/c/B/A/ | 
[V:3] z4 | 
[V:4] z4 | 
[V:1] G>EFA- | 
[V:2] G/F/ED/E/F/G/ | 
[V:3] z4 | 
[V:4] z4 | 
[V:1] AG/F/E2 | 
[V:2] A/D/d2^c | 
[V:3] z4 | 
[V:4] z4 | 
[V:1] D4 | 
[V:2] d2z2 | 
[V:3] z2d2 | 
[V:4] D,2B,,3/C,/ | 
[V:1] z4 | 
[V:2] z4 | 
[V:3] B>cdG- | 
[V:4] D,G,,>A,,B,, | 
[V:1] z4 | 
[V:2] z4 | 
[V:3] GA>GF/E/ | 
[V:4] C,2D,3/E,/ | 
[V:1] z4 | 
[V:2] z4 | 
[V:3] D>E F/G/A/B/ | 
[V:4] F,/G,/A,2F,- | 
[V:1] z4 | 
[V:2] z4 | 
[V:3] c2BA | 
[V:4] F,E,D,3/C,/ | 
[V:1] z4 | 
[V:2] z4 | 
[V:3] d>cB/A/B- | 
[V:4] B,,/A,,/G,,2D,- | 
[V:1] z4 | 
[V:2] z4 | 
[V:3] BA2^G | 
[V:4] D,C,B,,2 | 
[V:1] z2A2 | 
[V:2] z4 | 
[V:3] A4 | 
[V:4] A,,4 | 
[V:1] ccAA | 
[V:2] c2ff | 
[V:3] z4 | 
[V:4] z4 | 
[V:1] d>cB/A/G- | 
[V:2] ddg3/f/ | 
[V:3] z2G2 | 
[V:4] z4 | 
[V:1] GA>GF/E/ | 
[V:2] e/d/ce2 | 
[V:3] ccAA | 
[V:4] z4 | 
[V:1] FD2G- | 
[V:2] A2BG | 
[V:3] d>cB/A/B | 
[V:4] D,2G,G, | 
[V:1] G/A/BcA | 
[V:2] B2Ac | 
[V:3] G2A2 | 
[V:4] E,G,F,2 | 
[V:1] B2GA- | 
[V:2] B/c/de2 | 
[V:3] G2c3/B/ | 
[V:4] G,>F,E,/D,/C, | 
[V:1] A/B/c/d/BA- | 
[V:2] c2zf- | 
[V:3] A2GA | 
[V:4] F,2G,F,- | 
[V:1] A/B/c/d/BA- | 
[V:2] f/g/adf- | 
[V:3] c>BGA | 
[V:4] F,/E,/F,G,F,- | 
[V:1] A/B/c/d/BA- | 
[V:2] f/e/fgf | 
[V:3] c2d2- | 
[V:4] F,/G,/A,G,D, | 
[V:1] AG2^F | 
[V:2] d2d2 | 
[V:3] dBA2 | 
[V:4] B,,G,,D,2 | 
[V:1] G4 |]  
[V:2] d4 |]  
[V:3] G4 |]  
[V:4] G,,4 |]  


